img/logo-superguided-full.svg

<svg fill="none" height="35" viewBox="0 0 247 35" width="247" xmlns="http://www.w3.org/2000/svg"><g fill="#2f221b"><path d="m246.225 2.104c-.128 3.96801-.192 8.1173-.192 12.448 0 4.288.064 8.4373.192 12.448h-7.232l.096-3.84c-.619 1.4293-1.515 2.4853-2.688 3.168-1.174.6613-2.56.992-4.16.992-1.387 0-2.635-.3947-3.744-1.184-1.11-.7893-1.974-1.856-2.592-3.2-.619-1.3653-.928-2.8587-.928-4.48 0-1.6.309-3.104.928-4.512.618-1.4293 1.482-2.5707 2.592-3.424 1.13-.87466 2.41-1.312 3.84-1.312 1.664 0 3.082.352 4.256 1.056 1.194.6827 2.08 1.7493 2.656 3.2 0-1.216-.043-3.168-.128-5.85599-.086-2.60267-.128-4.43734-.128-5.50401zm-10.624 19.84c1.045 0 1.898-.288 2.56-.864.661-.5973.992-1.536.992-2.816 0-1.1307-.331-1.9627-.992-2.496-.662-.5333-1.494-.8-2.496-.8-.96 0-1.771.3093-2.432.928-.64.5973-.96 1.3867-.96 2.368 0 1.088.298 1.9733.896 2.656.597.6827 1.408 1.024 2.432 1.024z"/><path d="m208.605 19c.171.9387.587 1.7067 1.248 2.304.683.576 1.643.864 2.88.864.896 0 1.739-.1707 2.528-.512.789-.3627 1.419-.864 1.888-1.504 1.429.704 3.328 1.4613 5.696 2.272-.661 1.4933-1.867 2.688-3.616 3.584-1.728.8747-3.989 1.312-6.784 1.312-3.627 0-6.315-.832-8.064-2.496-1.728-1.6853-2.592-3.8933-2.592-6.624 0-2.6667.864-4.832 2.592-6.496s4.416-2.49599 8.064-2.49599c2.176 0 4.064.36266 5.664 1.08799 1.6.7253 2.827 1.7387 3.68 3.04.853 1.28 1.28 2.752 1.28 4.416 0 .5547-.021.9707-.064 1.248zm4.288-4.96c-1.067 0-1.941.2027-2.624.608s-1.163.96-1.44 1.664h7.552c-.256-.6827-.672-1.2267-1.248-1.632-.576-.4267-1.323-.64-2.24-.64z"/><path d="m199.537 2.104c-.128 3.96801-.192 8.1173-.192 12.448 0 4.288.064 8.4373.192 12.448h-7.232l.096-3.84c-.619 1.4293-1.515 2.4853-2.688 3.168-1.173.6613-2.56.992-4.16.992-1.387 0-2.635-.3947-3.744-1.184s-1.973-1.856-2.592-3.2c-.619-1.3653-.928-2.8587-.928-4.48 0-1.6.309-3.104.928-4.512.619-1.4293 1.483-2.5707 2.592-3.424 1.131-.87466 2.411-1.312 3.84-1.312 1.664 0 3.083.352 4.256 1.056 1.195.6827 2.08 1.7493 2.656 3.2 0-1.216-.043-3.168-.128-5.85599-.085-2.60267-.128-4.43734-.128-5.50401zm-10.624 19.84c1.045 0 1.899-.288 2.56-.864.661-.5973.992-1.536.992-2.816 0-1.1307-.331-1.9627-.992-2.496s-1.493-.8-2.496-.8c-.96 0-1.771.3093-2.432.928-.64.5973-.96 1.3867-.96 2.368 0 1.088.299 1.9733.896 2.656s1.408 1.024 2.432 1.024z"/><path d="m171.773 7.63994c-1.344 0-2.347-.33066-3.008-.992-.64-.66133-.96-1.52533-.96-2.592 0-1.04533.32-1.90933.96-2.592.661-.682665 1.664-1.023999 3.008-1.023999 1.28 0 2.261.352 2.944 1.055999.682.68267 1.024 1.536 1.024 2.56 0 1.06667-.331 1.93067-.992 2.592-.662.66134-1.654.992-2.976.992zm-3.712 19.35996c.149-3.4346.224-6.272.224-8.512 0-2.6666-.086-5.6533-.256-8.95996h7.68c-.171 3.17866-.256 6.16536-.256 8.95996 0 2.3467.074 5.184.224 8.512z"/><path d="m164.914 9.52783c-.149 2.68797-.224 5.58937-.224 8.70397 0 3.136.075 6.0587.224 8.768-1.365-.064-2.442-.096-3.232-.096-.746 0-1.824.032-3.232.096l-.928-4.704c-.49 1.7067-1.258 2.976-2.304 3.808-1.045.8107-2.261 1.216-3.648 1.216-1.28 0-2.389-.2773-3.328-.832-.938-.576-1.653-1.344-2.144-2.304-.469-.96-.704-2.0373-.704-3.232v-4.608c0-2.8373-.053-5.1093-.16-6.81597h7.2c-.128 3.13597-.192 6.23997-.192 9.31197 0 .9387.224 1.6854.672 2.24.47.5547 1.056.832 1.76.832.662 0 1.238-.288 1.728-.864.512-.5973.822-1.408.928-2.432v-.736c.043-1.664.064-2.816.064-3.456 0-1.472-.042-3.104-.128-4.89597z"/><path d="m129.012 13.7522h13.664v13.248h-5.632l-.672-5.664c-.64 2.0267-1.781 3.5307-3.424 4.512s-3.648 1.472-6.016 1.472c-2.155 0-4.075-.48-5.76-1.44-1.664-.96-2.976-2.336-3.936-4.128-.939-1.792-1.408-3.8827-1.408-6.272 0-3.8187 1.141-6.83734 3.424-9.05601 2.283-2.21866 5.835-3.328 10.656-3.328 2.752 0 5.173.448 7.264 1.344 2.112.896 3.904 2.28267 5.376 4.16-.96.49067-2.837 1.47201-5.632 2.94401l-.8.448c-.832-.832-1.803-1.4507-2.912-1.856-1.109-.42668-2.283-.64001-3.52-.64001-2.048 0-3.573.54401-4.576 1.63201-1.003 1.0667-1.504 2.3893-1.504 3.968 0 1.7067.533 3.0827 1.6 4.128 1.088 1.0453 2.741 1.568 4.96 1.568.96 0 1.888-.1387 2.784-.416.917-.2773 1.685-.7573 2.304-1.44h-6.24z"/><path d="m106.69 14.2641c.896-3.2213 3.125-4.83197 6.688-4.83197.618 0 1.216.04267 1.792.128l-1.024 7.16797c-1.536-.576-2.795-.864-3.776-.864-1.216 0-2.112.3627-2.688 1.088-.576.7254-.864 1.696-.864 2.912v-.032l-.032 2.112c0 1.5147.042 3.2.128 5.056h-7.6484c.1707-3.072.256-5.9733.256-8.704 0-2.7306-.0853-5.6533-.256-8.76797 1.4084.064 2.4854.096 3.2324.096.789 0 1.866-.032 3.232-.096z"/><path d="m82.5738 19c.1707.9387.5867 1.7067 1.248 2.304.6827.576 1.6427.864 2.88.864.896 0 1.7387-.1707 2.528-.512.7893-.3627 1.4187-.864 1.888-1.504 1.4293.704 3.328 1.4613 5.696 2.272-.6613 1.4933-1.8667 2.688-3.616 3.584-1.728.8747-3.9893 1.312-6.784 1.312-3.6267 0-6.3147-.832-8.064-2.496-1.728-1.6853-2.592-3.8933-2.592-6.624 0-2.6667.864-4.832 2.592-6.496s4.416-2.49599 8.064-2.49599c2.176 0 4.064.36266 5.664 1.08799 1.6.7253 2.8267 1.7387 3.68 3.04.8533 1.28 1.28 2.752 1.28 4.416 0 .5547-.0213.9707-.064 1.248zm4.288-4.96c-1.0666 0-1.9413.2027-2.624.608s-1.1627.96-1.44 1.664h7.552c-.256-.6827-.672-1.2267-1.248-1.632-.576-.4267-1.3226-.64-2.24-.64z"/><path d="m66.5621 9.20801c1.3867 0 2.6347.39466 3.744 1.18399 1.1094.7893 1.9734 1.8667 2.592 3.232.6187 1.344.928 2.8267.928 4.448 0 1.6-.3093 3.1147-.928 4.544-.6186 1.408-1.4933 2.5493-2.624 3.424-1.1093.8533-2.3786 1.28-3.808 1.28-1.664 0-3.0933-.3413-4.288-1.024-1.1733-.704-2.048-1.7813-2.624-3.232 0 1.216.0427 3.168.128 5.856.0854 2.6027.128 4.4373.128 5.504h-7.232c.128-3.968.192-8.1173.192-12.448s-.064-8.48-.192-12.44799h6.144l.928 3.99999c.5974-1.4933 1.4934-2.5813 2.688-3.264 1.1947-.70399 2.6027-1.05599 4.224-1.05599zm-3.424 12.35199c.96 0 1.76-.2987 2.4-.896.6614-.6187.992-1.4187.992-2.4 0-1.088-.2986-1.9733-.896-2.656-.5973-.6827-1.408-1.024-2.432-1.024-1.1733 0-2.0586.288-2.656.864-.5973.5547-.896 1.4933-.896 2.816 0 .7467.192 1.376.576 1.888.384.4907.8427.8533 1.376 1.088.5334.2133 1.0454.32 1.536.32z"/><path d="m50.0081 9.52783c-.1493 2.68797-.224 5.58937-.224 8.70397 0 3.136.0747 6.0587.224 8.768-1.3653-.064-2.4426-.096-3.232-.096-.7466 0-1.824.032-3.232.096l-.928-4.704c-.4906 1.7067-1.2586 2.976-2.304 3.808-1.0453.8107-2.2613 1.216-3.648 1.216-1.28 0-2.3893-.2773-3.328-.832-.9386-.576-1.6533-1.344-2.144-2.304-.4693-.96-.704-2.0373-.704-3.232v-4.608c0-2.8373-.0533-5.1093-.16-6.81597h7.2c-.128 3.13597-.192 6.23997-.192 9.31197 0 .9387.224 1.6854.672 2.24.4694.5547 1.056.832 1.76.832.6614 0 1.2374-.288 1.728-.864.512-.5973.8214-1.408.928-2.432v-.736c.0427-1.664.064-2.816.064-3.456 0-1.472-.0426-3.104-.128-4.89597z"/><path d="m.765625 24.2479c.725335-1.088 1.322665-2.1013 1.791995-3.04.49067-.9386.96-2.0266 1.408-3.264 1.51467.8747 3.27467 1.5574 5.28001 2.048 2.00537.4907 3.87197.736 5.59997.736 1.7707 0 3.0187-.1493 3.744-.448.7254-.32 1.088-.6613 1.088-1.024 0-1.3013-1.984-1.952-5.952-1.952-4.35197 0-7.50931-.448-9.47198-1.344-1.96266-.9173-2.94399-2.3893-2.94399-4.416 0-2.87997 1.19466-5.00264 3.584-6.36797 2.38933-1.36533 5.49337-2.048 9.31197-2.048 2.2187 0 4.4907.288 6.816.864 2.3467.55467 4.4587 1.32267 6.336 2.304-.6186 1.408-1.2693 3.12533-1.952 5.15197-.128.4267-.2346.7467-.32.96-1.088-.8746-2.7306-1.6-4.928-2.176-2.1973-.5973-4.1386-.89597-5.824-.89597-2.0266 0-3.392.13867-4.096.416-.70397.25597-1.05597.63997-1.05597 1.15197s.48.928 1.43997 1.248c.9814.2987 2.3894.448 4.224.448 4.5227 0 7.808.5227 9.856 1.568 2.048 1.024 3.072 2.6027 3.072 4.736 0 2.9867-1.088 5.1414-3.264 6.464-2.176 1.3014-5.472 1.952-9.888 1.952-2.368 0-4.77864-.256-7.23197-.768-2.45334-.5333-4.66134-1.3013-6.624005-2.304z"/></g></svg>

<svg width="247" height="35" viewBox="0 0 247 35" fill="none" xmlns="http://www.w3.org/2000/svg">
<path d="M246.225 2.104C246.097 6.07201 246.033 10.2213 246.033 14.552C246.033 18.84 246.097 22.9893 246.225 27H238.993L239.089 23.16C238.47 24.5893 237.574 25.6453 236.401 26.328C235.227 26.9893 233.841 27.32 232.241 27.32C230.854 27.32 229.606 26.9253 228.497 26.136C227.387 25.3467 226.523 24.28 225.905 22.936C225.286 21.5707 224.977 20.0773 224.977 18.456C224.977 16.856 225.286 15.352 225.905 13.944C226.523 12.5147 227.387 11.3733 228.497 10.52C229.627 9.64534 230.907 9.208 232.337 9.208C234.001 9.208 235.419 9.56 236.593 10.264C237.787 10.9467 238.673 12.0133 239.249 13.464C239.249 12.248 239.206 10.296 239.121 7.60801C239.035 5.00534 238.993 3.17067 238.993 2.104H246.225ZM235.601 21.944C236.646 21.944 237.499 21.656 238.161 21.08C238.822 20.4827 239.153 19.544 239.153 18.264C239.153 17.1333 238.822 16.3013 238.161 15.768C237.499 15.2347 236.667 14.968 235.665 14.968C234.705 14.968 233.894 15.2773 233.233 15.896C232.593 16.4933 232.273 17.2827 232.273 18.264C232.273 19.352 232.571 20.2373 233.169 20.92C233.766 21.6027 234.577 21.944 235.601 21.944Z" fill="#2F221B"/>
<path d="M208.605 19C208.776 19.9387 209.192 20.7067 209.853 21.304C210.536 21.88 211.496 22.168 212.733 22.168C213.629 22.168 214.472 21.9973 215.261 21.656C216.05 21.2933 216.68 20.792 217.149 20.152C218.578 20.856 220.477 21.6133 222.845 22.424C222.184 23.9173 220.978 25.112 219.229 26.008C217.501 26.8827 215.24 27.32 212.445 27.32C208.818 27.32 206.13 26.488 204.381 24.824C202.653 23.1387 201.789 20.9307 201.789 18.2C201.789 15.5333 202.653 13.368 204.381 11.704C206.109 10.04 208.797 9.20801 212.445 9.20801C214.621 9.20801 216.509 9.57067 218.109 10.296C219.709 11.0213 220.936 12.0347 221.789 13.336C222.642 14.616 223.069 16.088 223.069 17.752C223.069 18.3067 223.048 18.7227 223.005 19H208.605ZM212.893 14.04C211.826 14.04 210.952 14.2427 210.269 14.648C209.586 15.0533 209.106 15.608 208.829 16.312H216.381C216.125 15.6293 215.709 15.0853 215.133 14.68C214.557 14.2533 213.81 14.04 212.893 14.04Z" fill="#2F221B"/>
<path d="M199.537 2.104C199.409 6.07201 199.345 10.2213 199.345 14.552C199.345 18.84 199.409 22.9893 199.537 27H192.305L192.401 23.16C191.782 24.5893 190.886 25.6453 189.713 26.328C188.54 26.9893 187.153 27.32 185.553 27.32C184.166 27.32 182.918 26.9253 181.809 26.136C180.7 25.3467 179.836 24.28 179.217 22.936C178.598 21.5707 178.289 20.0773 178.289 18.456C178.289 16.856 178.598 15.352 179.217 13.944C179.836 12.5147 180.7 11.3733 181.809 10.52C182.94 9.64534 184.22 9.208 185.649 9.208C187.313 9.208 188.732 9.56 189.905 10.264C191.1 10.9467 191.985 12.0133 192.561 13.464C192.561 12.248 192.518 10.296 192.433 7.60801C192.348 5.00534 192.305 3.17067 192.305 2.104H199.537ZM188.913 21.944C189.958 21.944 190.812 21.656 191.473 21.08C192.134 20.4827 192.465 19.544 192.465 18.264C192.465 17.1333 192.134 16.3013 191.473 15.768C190.812 15.2347 189.98 14.968 188.977 14.968C188.017 14.968 187.206 15.2773 186.545 15.896C185.905 16.4933 185.585 17.2827 185.585 18.264C185.585 19.352 185.884 20.2373 186.481 20.92C187.078 21.6027 187.889 21.944 188.913 21.944Z" fill="#2F221B"/>
<path d="M171.773 7.63994C170.429 7.63994 169.426 7.30928 168.765 6.64794C168.125 5.98661 167.805 5.12261 167.805 4.05594C167.805 3.01061 168.125 2.14661 168.765 1.46394C169.426 0.781275 170.429 0.439941 171.773 0.439941C173.053 0.439941 174.034 0.791941 174.717 1.49594C175.399 2.17861 175.741 3.03194 175.741 4.05594C175.741 5.12261 175.41 5.98661 174.749 6.64794C174.087 7.30928 173.095 7.63994 171.773 7.63994ZM168.061 26.9999C168.21 23.5653 168.285 20.7279 168.285 18.4879C168.285 15.8213 168.199 12.8346 168.029 9.52794H175.709C175.538 12.7066 175.453 15.6933 175.453 18.4879C175.453 20.8346 175.527 23.6719 175.677 26.9999H168.061Z" fill="#2F221B"/>
<path d="M164.914 9.52783C164.765 12.2158 164.69 15.1172 164.69 18.2318C164.69 21.3678 164.765 24.2905 164.914 26.9998C163.549 26.9358 162.472 26.9038 161.682 26.9038C160.936 26.9038 159.858 26.9358 158.45 26.9998L157.522 22.2958C157.032 24.0025 156.264 25.2718 155.218 26.1038C154.173 26.9145 152.957 27.3198 151.57 27.3198C150.29 27.3198 149.181 27.0425 148.242 26.4878C147.304 25.9118 146.589 25.1438 146.098 24.1838C145.629 23.2238 145.394 22.1465 145.394 20.9518V16.3438C145.394 13.5065 145.341 11.2345 145.234 9.52783H152.434C152.306 12.6638 152.242 15.7678 152.242 18.8398C152.242 19.7785 152.466 20.5252 152.914 21.0798C153.384 21.6345 153.97 21.9118 154.674 21.9118C155.336 21.9118 155.912 21.6238 156.402 21.0478C156.914 20.4505 157.224 19.6398 157.33 18.6158V17.8798C157.373 16.2158 157.394 15.0638 157.394 14.4238C157.394 12.9518 157.352 11.3198 157.266 9.52783H164.914Z" fill="#2F221B"/>
<path d="M129.012 13.7522H142.676V27.0002H137.044L136.372 21.3362C135.732 23.3629 134.591 24.8669 132.948 25.8482C131.305 26.8295 129.3 27.3202 126.932 27.3202C124.777 27.3202 122.857 26.8402 121.172 25.8802C119.508 24.9202 118.196 23.5442 117.236 21.7522C116.297 19.9602 115.828 17.8695 115.828 15.4802C115.828 11.6615 116.969 8.64286 119.252 6.42419C121.535 4.20553 125.087 3.09619 129.908 3.09619C132.66 3.09619 135.081 3.54419 137.172 4.44019C139.284 5.33619 141.076 6.72286 142.548 8.60019C141.588 9.09086 139.711 10.0722 136.916 11.5442L136.116 11.9922C135.284 11.1602 134.313 10.5415 133.204 10.1362C132.095 9.70952 130.921 9.49619 129.684 9.49619C127.636 9.49619 126.111 10.0402 125.108 11.1282C124.105 12.1949 123.604 13.5175 123.604 15.0962C123.604 16.8029 124.137 18.1789 125.204 19.2242C126.292 20.2695 127.945 20.7922 130.164 20.7922C131.124 20.7922 132.052 20.6535 132.948 20.3762C133.865 20.0989 134.633 19.6189 135.252 18.9362H129.012V13.7522Z" fill="#2F221B"/>
<path d="M106.69 14.2641C107.586 11.0428 109.815 9.43213 113.378 9.43213C113.996 9.43213 114.594 9.4748 115.17 9.56013L114.146 16.7281C112.61 16.1521 111.351 15.8641 110.37 15.8641C109.154 15.8641 108.258 16.2268 107.682 16.9521C107.106 17.6775 106.818 18.6481 106.818 19.8641V19.8321L106.786 21.9441C106.786 23.4588 106.828 25.1441 106.914 27.0001H99.2656C99.4363 23.9281 99.5216 21.0268 99.5216 18.2961C99.5216 15.5655 99.4363 12.6428 99.2656 9.52813C100.674 9.59213 101.751 9.62413 102.498 9.62413C103.287 9.62413 104.364 9.59213 105.73 9.52813L106.69 14.2641Z" fill="#2F221B"/>
<path d="M82.5738 19C82.7445 19.9387 83.1605 20.7067 83.8218 21.304C84.5045 21.88 85.4645 22.168 86.7018 22.168C87.5978 22.168 88.4405 21.9973 89.2298 21.656C90.0191 21.2933 90.6485 20.792 91.1178 20.152C92.5471 20.856 94.4458 21.6133 96.8138 22.424C96.1525 23.9173 94.9471 25.112 93.1978 26.008C91.4698 26.8827 89.2085 27.32 86.4138 27.32C82.7871 27.32 80.0991 26.488 78.3498 24.824C76.6218 23.1387 75.7578 20.9307 75.7578 18.2C75.7578 15.5333 76.6218 13.368 78.3498 11.704C80.0778 10.04 82.7658 9.20801 86.4138 9.20801C88.5898 9.20801 90.4778 9.57067 92.0778 10.296C93.6778 11.0213 94.9045 12.0347 95.7578 13.336C96.6111 14.616 97.0378 16.088 97.0378 17.752C97.0378 18.3067 97.0165 18.7227 96.9738 19H82.5738ZM86.8618 14.04C85.7952 14.04 84.9205 14.2427 84.2378 14.648C83.5551 15.0533 83.0751 15.608 82.7978 16.312H90.3498C90.0938 15.6293 89.6778 15.0853 89.1018 14.68C88.5258 14.2533 87.7792 14.04 86.8618 14.04Z" fill="#2F221B"/>
<path d="M66.5621 9.20801C67.9488 9.20801 69.1968 9.60267 70.3061 10.392C71.4155 11.1813 72.2795 12.2587 72.8981 13.624C73.5168 14.968 73.8261 16.4507 73.8261 18.072C73.8261 19.672 73.5168 21.1867 72.8981 22.616C72.2795 24.024 71.4048 25.1653 70.2741 26.04C69.1648 26.8933 67.8955 27.32 66.4661 27.32C64.8021 27.32 63.3728 26.9787 62.1781 26.296C61.0048 25.592 60.1301 24.5147 59.5541 23.064C59.5541 24.28 59.5968 26.232 59.6821 28.92C59.7675 31.5227 59.8101 33.3573 59.8101 34.424H52.5781C52.7061 30.456 52.7701 26.3067 52.7701 21.976C52.7701 17.6453 52.7061 13.496 52.5781 9.52801H58.7221L59.6501 13.528C60.2475 12.0347 61.1435 10.9467 62.3381 10.264C63.5328 9.56001 64.9408 9.20801 66.5621 9.20801ZM63.1381 21.56C64.0981 21.56 64.8981 21.2613 65.5381 20.664C66.1995 20.0453 66.5301 19.2453 66.5301 18.264C66.5301 17.176 66.2315 16.2907 65.6341 15.608C65.0368 14.9253 64.2261 14.584 63.2021 14.584C62.0288 14.584 61.1435 14.872 60.5461 15.448C59.9488 16.0027 59.6501 16.9413 59.6501 18.264C59.6501 19.0107 59.8421 19.64 60.2261 20.152C60.6101 20.6427 61.0688 21.0053 61.6021 21.24C62.1355 21.4533 62.6475 21.56 63.1381 21.56Z" fill="#2F221B"/>
<path d="M50.0081 9.52783C49.8588 12.2158 49.7841 15.1172 49.7841 18.2318C49.7841 21.3678 49.8588 24.2905 50.0081 26.9998C48.6428 26.9358 47.5655 26.9038 46.7761 26.9038C46.0295 26.9038 44.9521 26.9358 43.5441 26.9998L42.6161 22.2958C42.1255 24.0025 41.3575 25.2718 40.3121 26.1038C39.2668 26.9145 38.0508 27.3198 36.6641 27.3198C35.3841 27.3198 34.2748 27.0425 33.3361 26.4878C32.3975 25.9118 31.6828 25.1438 31.1921 24.1838C30.7228 23.2238 30.4881 22.1465 30.4881 20.9518V16.3438C30.4881 13.5065 30.4348 11.2345 30.3281 9.52783H37.5281C37.4001 12.6638 37.3361 15.7678 37.3361 18.8398C37.3361 19.7785 37.5601 20.5252 38.0081 21.0798C38.4775 21.6345 39.0641 21.9118 39.7681 21.9118C40.4295 21.9118 41.0055 21.6238 41.4961 21.0478C42.0081 20.4505 42.3175 19.6398 42.4241 18.6158V17.8798C42.4668 16.2158 42.4881 15.0638 42.4881 14.4238C42.4881 12.9518 42.4455 11.3198 42.3601 9.52783H50.0081Z" fill="#2F221B"/>
<path d="M0.765625 24.2479C1.49096 23.1599 2.08829 22.1466 2.55762 21.2079C3.04829 20.2693 3.51762 19.1813 3.96562 17.9439C5.48029 18.8186 7.24029 19.5013 9.24563 19.9919C11.251 20.4826 13.1176 20.7279 14.8456 20.7279C16.6163 20.7279 17.8643 20.5786 18.5896 20.2799C19.315 19.9599 19.6776 19.6186 19.6776 19.2559C19.6776 17.9546 17.6936 17.3039 13.7256 17.3039C9.37363 17.3039 6.21629 16.8559 4.25362 15.9599C2.29096 15.0426 1.30963 13.5706 1.30963 11.5439C1.30963 8.66393 2.50429 6.54126 4.89363 5.17593C7.28296 3.8106 10.387 3.12793 14.2056 3.12793C16.4243 3.12793 18.6963 3.41593 21.0216 3.99193C23.3683 4.5466 25.4803 5.3146 27.3576 6.29593C26.739 7.70393 26.0883 9.42126 25.4056 11.4479C25.2776 11.8746 25.171 12.1946 25.0856 12.4079C23.9976 11.5333 22.355 10.8079 20.1576 10.2319C17.9603 9.6346 16.019 9.33593 14.3336 9.33593C12.307 9.33593 10.9416 9.4746 10.2376 9.75193C9.53363 10.0079 9.18163 10.3919 9.18163 10.9039C9.18163 11.4159 9.66163 11.8319 10.6216 12.1519C11.603 12.4506 13.011 12.5999 14.8456 12.5999C19.3683 12.5999 22.6536 13.1226 24.7016 14.1679C26.7496 15.1919 27.7736 16.7706 27.7736 18.9039C27.7736 21.8906 26.6856 24.0453 24.5096 25.3679C22.3336 26.6693 19.0376 27.3199 14.6216 27.3199C12.2536 27.3199 9.84296 27.0639 7.38963 26.5519C4.93629 26.0186 2.72829 25.2506 0.765625 24.2479Z" fill="#2F221B"/>
</svg>
